src/assets/icons/discord.svg

<svg width="14" height="14" viewBox="0 0 14 14" fill="none" xmlns="http://www.w3.org/2000/svg">
<g id="discord">
<g clip-path="url(#clip0_156_4471)">
<path id="Vector" d="M11.8587 2.49993C10.9524 2.077 9.98351 1.76974 8.97039 1.59438C8.84587 1.81911 8.70072 2.12047 8.60052 2.36067C7.5233 2.19931 6.45639 2.19931 5.39981 2.36067C5.2996 2.12047 5.15077 1.81911 5.02551 1.59438C4.01166 1.76974 3.04128 2.07774 2.135 2.50214C0.306969 5.25781 -0.188169 7.94423 0.0593999 10.5931C1.27145 11.4964 2.44667 12.0446 3.60199 12.4041C3.88714 12.0129 4.14134 11.5966 4.36091 11.1575C3.94387 10.999 3.54378 10.8038 3.16653 10.5776C3.26674 10.5039 3.36474 10.4258 3.45905 10.3462C5.76232 11.4212 8.26527 11.4212 10.5413 10.3462C10.6371 10.4258 10.7351 10.5032 10.8338 10.5776C10.4551 10.8053 10.0542 11.0005 9.63721 11.1589C9.85604 11.5966 10.1095 12.0136 10.3961 12.4056C11.5522 12.0468 12.7281 11.4979 13.9409 10.5938C14.2305 7.52277 13.4428 4.86067 11.8587 2.49993ZM4.67405 8.96471C3.98292 8.96471 3.41557 8.32073 3.41557 7.53677C3.41557 6.7528 3.97039 6.10735 4.67405 6.10735C5.3777 6.10735 5.94505 6.75133 5.93252 7.53677C5.93399 8.32073 5.3777 8.96471 4.67405 8.96471ZM9.3248 8.96471C8.63367 8.96471 8.06633 8.32073 8.06633 7.53677C8.06633 6.7528 8.62115 6.10735 9.3248 6.10735C10.0285 6.10735 10.5958 6.75133 10.5833 7.53677C10.5833 8.32073 10.0285 8.96471 9.3248 8.96471Z" fill="black"/>
</g>
</g>
<defs>
<clipPath id="clip0_156_4471">
<rect width="14" height="14" fill="white"/>
</clipPath>
</defs>
</svg>

<svg xmlns="http://www.w3.org/2000/svg" fill="none" viewBox="0 0 14 14"><g clip-path="url(#a)"><path fill="#000" d="M11.859 2.5a11.4 11.4 0 0 0-2.889-.906c-.124.225-.27.526-.37.767a10.6 10.6 0 0 0-3.2 0 8 8 0 0 0-.374-.767 11.4 11.4 0 0 0-2.891.908C.307 5.258-.188 7.944.059 10.593a11.6 11.6 0 0 0 3.543 1.811q.429-.587.759-1.246a7.5 7.5 0 0 1-1.194-.58q.15-.111.292-.232c2.303 1.075 4.806 1.075 7.082 0q.144.12.293.232-.57.343-1.197.58.329.66.76 1.248a11.5 11.5 0 0 0 3.544-1.812c.29-3.071-.498-5.733-2.082-8.094M4.674 8.965c-.691 0-1.258-.644-1.258-1.428s.554-1.43 1.258-1.43 1.271.644 1.259 1.43c.001.784-.555 1.428-1.259 1.428m4.65 0c-.69 0-1.258-.644-1.258-1.428s.555-1.43 1.259-1.43 1.27.644 1.258 1.43c0 .784-.555 1.428-1.258 1.428"/></g><defs><clipPath id="a"><path fill="#fff" d="M0 0h14v14H0z"/></clipPath></defs></svg>
